illustrations/assets/Grid location/il_axis_grid_location_light.svg

<svg xmlns="http://www.w3.org/2000/svg" width="230" height="160" fill="none" viewBox="0 0 230 160">
  <path fill="#EDE5DA" d="M114.985 149.8c36.821 0 66.67-29.608 66.67-66.1308 0-36.5231-29.849-66.1309-66.67-66.1309-36.82 0-66.6688 29.6078-66.6688 66.1309 0 36.5228 29.8488 66.1308 66.6688 66.1308Z"/>
  <path fill="#FAF9F8" d="M112.234 23.5454c-6.655.2934-13.0897 1.6456-19.0144 3.9135-.3672.3763-.7291.7338-1.0735 1.074l-.0421.0416c-6.8969 6.9846-12.5128 17.069-15.9016 29.0328h36.0316V23.5454ZM81.3161 33.6174c-8.9578 5.9716-16.2552 14.2601-20.9954 23.9899h10.4374c2.4044-9.0343 6.0206-17.1883 10.558-23.9899ZM58.0736 62.8386c-2.4303 6.4966-3.7611 13.515-3.7611 20.8296 0 7.4246 1.3712 14.5441 3.8716 21.1228h11.3524c-1.3787-6.6835-2.1141-13.7817-2.1141-21.122 0-7.2271.7343-14.226 2.1005-20.8304H58.0736ZM60.4645 110.022c4.7093 9.534 11.8803 17.668 20.6613 23.57-4.4653-6.683-7.9976-14.689-10.357-23.57H60.4645ZM93.1977 139.869c5.9307 2.273 12.3723 3.628 19.0363 3.922v-33.769H76.2124c3.3677 11.904 8.9449 21.879 15.8803 28.73.3657.362.7354.734 1.105 1.117ZM117.486 143.802c6.695-.269 13.171-1.608 19.134-3.874.325-.344.657-.684.995-1.018 6.869-6.957 12.468-16.988 15.861-28.888h-35.99v33.78ZM148.343 133.957c9.062-5.929 16.417-14.202 21.203-23.935h-10.623c-2.416 9.017-6.039 17.152-10.58 23.935ZM171.814 104.791c2.487-6.5787 3.845-13.6982 3.845-21.1228 0-7.3146-1.318-14.333-3.735-20.8296h-11.717c1.363 6.633 2.09 13.6775 2.09 20.976 0 7.2803-.745 14.329-2.131 20.9764h11.648ZM169.689 57.6073c-4.823-9.9456-12.323-18.3853-21.586-24.3838 4.714 6.8708 8.431 15.1559 10.876 24.3838h10.71ZM136.323 27.2966c.395.4407.797.8832 1.208 1.3353.028.0301.056.0595.085.0883 6.964 6.9636 12.556 16.9641 15.92 28.8871h-36.05V23.5348c6.584.2636 12.956 1.5636 18.837 3.7618ZM154.797 104.791c1.452-6.576 2.248-13.6277 2.248-20.9764 0-7.3724-.776-14.4187-2.204-20.976h-37.355v41.9524h37.311ZM112.234 104.791V62.8386H74.8909c-1.432 6.5341-2.216 13.536-2.216 20.8304 0 7.4176.7854 14.5178 2.2287 21.122h37.3304Z"/>
  <path fill="url(#paint0_linear_3831_4993)" d="M153.234 13c15.472 0 27.984 12.2588 27.984 27.4166 0 12.0931-17.754 36.0308-25.025 45.3077-1.521 1.9879-4.565 1.9879-6.087 0-7.27-9.2769-25.025-33.2146-25.025-45.3077C125.25 25.2588 137.763 13 153.234 13Z"/>
  <path fill="#fff" d="M153.15 52.0105c6.043 0 10.942-5.1119 10.942-11.4177 0-6.3059-4.899-11.4178-10.942-11.4178s-10.942 5.1119-10.942 11.4178c0 6.3058 4.899 11.4177 10.942 11.4177Z"/>
  <defs>
    <linearGradient id="paint0_linear_3831_4993" x1="153.132" x2="153.132" y1="11.2833" y2="88.0153" gradientUnits="userSpaceOnUse">
      <stop stop-color="#D0C4B4"/>
      <stop offset=".9964" stop-color="#D7CDC1"/>
      <stop offset=".9965" stop-color="#B4A99A"/>
    </linearGradient>
  </defs>
</svg>

<svg width="230" height="160" viewBox="0 0 230 160" fill="none" xmlns="http://www.w3.org/2000/svg">
<path d="M114.985 149.8C151.806 149.8 181.655 120.192 181.655 83.6692C181.655 47.1461 151.806 17.5383 114.985 17.5383C78.165 17.5383 48.3162 47.1461 48.3162 83.6692C48.3162 120.192 78.165 149.8 114.985 149.8Z" fill="#EDE5DA"/>
<path d="M112.234 23.5454C105.579 23.8388 99.1443 25.191 93.2196 27.4589C92.8524 27.8352 92.4905 28.1927 92.1461 28.5329L92.104 28.5745C85.2071 35.5591 79.5912 45.6435 76.2024 57.6073H112.234V23.5454Z" fill="#FAF9F8"/>
<path d="M81.3161 33.6174C72.3583 39.589 65.0609 47.8775 60.3207 57.6073H70.7581C73.1625 48.573 76.7787 40.419 81.3161 33.6174Z" fill="#FAF9F8"/>
<path d="M58.0736 62.8386C55.6433 69.3352 54.3125 76.3536 54.3125 83.6682C54.3125 91.0928 55.6837 98.2123 58.1841 104.791H69.5365C68.1578 98.1075 67.4224 91.0093 67.4224 83.669C67.4224 76.4419 68.1567 69.443 69.5229 62.8386H58.0736Z" fill="#FAF9F8"/>
<path d="M60.4645 110.022C65.1738 119.556 72.3448 127.69 81.1258 133.592C76.6605 126.909 73.1282 118.903 70.7688 110.022H60.4645Z" fill="#FAF9F8"/>
<path d="M93.1978 139.869C99.1284 142.142 105.57 143.497 112.234 143.791V110.022H76.2124C79.5801 121.926 85.1573 131.901 92.0927 138.752C92.4584 139.114 92.8281 139.486 93.1978 139.869Z" fill="#FAF9F8"/>
<path d="M117.486 143.802C124.181 143.534 130.657 142.194 136.62 139.928C136.945 139.584 137.277 139.244 137.615 138.91C144.484 131.953 150.083 121.922 153.476 110.022H117.486V143.802Z" fill="#FAF9F8"/>
<path d="M148.343 133.957C157.405 128.028 164.76 119.755 169.546 110.022H158.923C156.507 119.039 152.884 127.174 148.343 133.957Z" fill="#FAF9F8"/>
<path d="M171.814 104.791C174.301 98.2123 175.659 91.0928 175.659 83.6682C175.659 76.3536 174.341 69.3352 171.924 62.8386H160.207C161.57 69.4716 162.297 76.5161 162.297 83.8146C162.297 91.0949 161.552 98.1436 160.166 104.791H171.814Z" fill="#FAF9F8"/>
<path d="M169.689 57.6073C164.866 47.6617 157.366 39.222 148.103 33.2235C152.817 40.0943 156.534 48.3794 158.979 57.6073H169.689Z" fill="#FAF9F8"/>
<path d="M136.323 27.2966C136.718 27.7373 137.12 28.1798 137.531 28.6319C137.559 28.662 137.587 28.6914 137.616 28.7202C144.58 35.6838 150.172 45.6843 153.536 57.6073H117.486V23.5348C124.07 23.7984 130.442 25.0984 136.323 27.2966Z" fill="#FAF9F8"/>
<path d="M154.797 104.791C156.249 98.215 157.045 91.1633 157.045 83.8146C157.045 76.4422 156.269 69.3959 154.841 62.8386H117.486V104.791H154.797Z" fill="#FAF9F8"/>
<path d="M112.234 104.791V62.8386H74.8909C73.4589 69.3727 72.6749 76.3746 72.6749 83.669C72.6749 91.0866 73.4603 98.1868 74.9036 104.791H112.234Z" fill="#FAF9F8"/>
<path d="M153.234 13C168.706 13 181.218 25.2588 181.218 40.4166C181.218 52.5097 163.464 76.4474 156.193 85.7243C154.672 87.7122 151.628 87.7122 150.106 85.7243C142.836 76.4474 125.081 52.5097 125.081 40.4166C125.25 25.2588 137.763 13 153.234 13Z" fill="url(#paint0_linear_3831_4993)"/>
<path d="M153.15 52.0105C159.193 52.0105 164.092 46.8986 164.092 40.5928C164.092 34.2869 159.193 29.175 153.15 29.175C147.107 29.175 142.208 34.2869 142.208 40.5928C142.208 46.8986 147.107 52.0105 153.15 52.0105Z" fill="white"/>
<defs>
<linearGradient id="paint0_linear_3831_4993" x1="153.132" y1="11.2833" x2="153.132" y2="88.0153" gradientUnits="userSpaceOnUse">
<stop stop-color="#D0C4B4"/>
<stop offset="0.9964" stop-color="#D7CDC1"/>
<stop offset="0.9965" stop-color="#B4A99A"/>
</linearGradient>
</defs>
</svg>
